!!!!SEGMENT: pl-wtm--r-1227--023_lodwigowski-edward-stefan--dla-ciebie-zyje-ja.krn
!!!cenid: 18xx:1963
!!!COM: Łodwigowski, Edward Stefan
!!!COM-rismid: pe30111147
!!!CDT: 1815/08/14-1895/11/12
!!!CNT: Polish
!!!OTL: Dla ciebie żyję ja
!!!PDT:
!!!AGN:
!!!SMS-siglum: PL-Wtm
!!!SMS-shelfmark: R 1227
!!!SMS-shelfwork: 023 W
!!!SMS-variant:
!!!SMS-altvar:
!!!NIFC-rismid: 1001084166
!!!URL-scan: http://repozytorium.nifc.pl/skany/pl-wtm-nut--r1226-1227
!!!ONB-nifc: UWAGA: No. 94
!!!OMD: No 94. Moderato
**kern	**fing	**kern	**fing	**dynam
*part1	*	*part1	*	*part1
*staff2	*	*staff1	*	*
*I"Fortepian	*	*I"Fortepian	*	*
*clefF4	*	*clefG2	*	*
*k[f#]	*	*k[f#]	*	*
*M3/8	*	*M3/8	*	*
*>[A,A1,A,A2,B]	*>[A,A1,A,A2,B]	*>[A,A1,A,A2,B]	*>[A,A1,A,A2,B]	*>[A,A1,A,A2,B]
=1	=1	=1	=1	=1
*all\right	*	*all\right	*	*
*>A	*>A	*>A	*>A	*>A
*^	*	*	*	*
*	*	*below	*	*	*
!	!	!	!LO:TX:a:i:t=Dla ciebie zyje ja J. Kurakowskiego.	!	!
4.G/	8G\L	4	(8d/L	1	p
.	8d 8B\	.	8g/	2	.
.	8dJ 8B\	.	8b/J	4	.
=2	=2	=2	=2	=2	=2
!	!	!	!LO:TX:t=P:problem:all\right:global	!	!
4.D/	8D\L	5	16cc\LL	5	.
.	.	.	16b\JJ	.	.
.	8c 8F#\	.	4a\)	.	.
.	8cJ 8F#\	.	.	.	.
=3	=3	=3	=3	=3	=3
4.D/	8D\L	.	(8f#/L	2	<
.	8c 8F#\	.	8a/	1	.
.	8cJ 8F#\	.	8cc/J	3	[[
=4	=4	=4	=4	=4	=4
4.G/	8G\L	.	16ee\LL	.	>
.	.	.	16dd\JJ	.	.
.	8d 8B\	.	4b\)	.	]]
.	8dJ 8B\	.	.	.	.
=5	=5	=5	=5	=5	=5
!LO:TX:a:t=1a	!	!	!	!	!
*>A1	*>A1	*>A1	*>A1	*>A1	*>A1
4.G/	8G\L	.	16b\LL	1	.
.	.	.	16cc\JJ	.	.
.	8d 8B\	.	8b\L	.	.
.	8BJ 8A 8F#\	4	8dd#X\J	2	<
*v	*v	*	*	*	*
=6	=6	=6	=6	=6
8BL 8G 8E'\	.	16ee\LL	3	.
.	.	16ff#\JJ	.	.
8B 8G 8E'\	4 2 1	4gg\	.	[[
8B-XJ 8G 8E 8D'\	.	.	.	.
!!LO:LB:g=original
=7	=7	=7	=7	=7
8A 8G 8E 8C'\	.	(16cc\LL	.	.
.	.	16b\JJ)	.	.
!	!	!LO:TX:b:i:t=ralen	!	!
8GL 8C 8AA^\	.	8.ff#^\L	5	>
8GJ 8C 8AA\	.	.	.	.
.	.	16ee\Jk	.	.
=8	=8	=8	=8	=8
!LO:TX:t=P:problem:mixed beam	!	!	!	!
8F#L 8D'>\	.	4dd\	.	]
8DD'/J	.	.	.	.
8r	.	8r	.	.
=9:|!	=9:|!	=9:|!	=9:|!	=9:|!
!LO:TX:a:t=2a	!	!	!	!
*>A2	*>A2	*>A2	*>A2	*>A2
*^	*	*	*	*
!	!	!	!LO:TUP:a:problem:klamra łukowa	!	!
4.BB/	8BB\L	.	(24dd\LL	.	.
.	.	.	24ee\	.	.
.	.	.	24dd\JJ	.	.
!	!	!	!	!	!LO:HP:t=cres
.	8G 8D\	.	16cc#X\LL	.	<
.	.	.	16dd\	1	.
.	8GJ 8D\	.	16gg\	4	.
.	.	.	16ff#\JJ	.	.
=10	=10	=10	=10	=10	=10
4.C/	8C\L	.	16ff#\LL	4	.
.	.	.	16ee\JJ	.	.
.	8A 8E\	.	4a/)	.	.
.	8AJ 8E\	.	.	.	.
=11	=11	=11	=11	=11	=11
4.D/	8D\L	.	(16a/LL	.	.
.	.	.	16b/JJ	.	.
.	8c 8F#\	.	8cc\L	.	.
.	8cJ 8F#\	.	16ee\L	.	>
.	.	.	16dd\JJ	.	.
*v	*v	*	*	*	*
=12	=12	=12	=12	=12
8BL 8G'\	.	4g/)	.	]
8BJ 8G'\	.	.	.	.
8r	.	8r	.	.
=13	=13	=13	=13	=13
*>B	*>B	*>B	*>B	*>B
*^	*	*	*	*
!	!	!	!	!	!LO:DY:rj
4.E/	8E\L	.	(16b\LL	1	pp
.	.	.	16cc\JJ	.	.
.	8B 8G\	.	8b\L	.	.
.	8BJ 8G\	.	8ee\J)	3	.
!!LO:LB:g=original
=14	=14	=14	=14	=14	=14
4.D#X/	8D#\L	.	(4ff#^<\	4	.
.	8B 8A\	.	.	.	.
.	8BJ 8A\	.	8b\)	.	.
=15	=15	=15	=15	=15	=15
4.E/	8E\L	.	(16b\LL	.	.
.	.	.	16cc\JJ	.	.
.	8B 8G\	.	8b\L	.	.
.	8BJ 8G\	.	8ee\J	.	.
=16	=16	=16	=16	=16	=16
*	*	*	*	*ela	*
4.D#X/	8D#\L	.	4.ff#^<\)	4-3	.
.	8B 8A\	.	.	.	.
.	8BJ 8A\	.	.	.	.
=17	=17	=17	=17	=17	=17
4.E/	8E\L	.	(16gg\LL	4	.
.	.	.	16ff#\JJ	.	.
!	!	!	!	!	!LO:HP:t=cres
.	8B 8G\	.	4ee\)	.	<
.	8c#XJ 8G\	.	.	.	.
=18	=18	=18	=18	=18	=18
4.F#/	8F#\L	.	(16ff#\LL	3	.
.	.	.	16ee\JJ	.	.
.	8d 8B\	.	4dd\)	.	.
.	8dJ 8B\	.	.	.	.
=19	=19	=19	=19	=19	=19
!	!	!	!LO:TX:b:i:t=ralentando.	!	!
4.F#/	8F#\L	.	(16cc#X\LL	2	.
.	.	.	16b#X\JJ	.	.
.	8e 8c#X 8B\	.	8cc#\L	.	.
.	8eJ 8c# 8A#X\	.	16gg\L	.	.
.	.	.	16ff#\JJ	.	.
*v	*v	*	*	*	*
=20	=20	=20	=20	=20
8dL 8B|\	.	4.b;\)	.	.
8BB'\J	.	.	.	.
8r;	.	.	.	.
!!LO:LB:g=original
=21	=21	=21	=21	=21
*^	*	*	*	*
!	!	!	!LO:TX:a:i:t=a tempo	!	!
4.D/	8D\L	.	(16cc\LL	2	.
.	.	.	16a\JJ	1	.
.	8c 8A 8F#\	.	4ee\)	4	.
.	8cJ 8A 8F#\	.	.	.	.
=22	=22	=22	=22	=22	=22
4.G/	8G\L	.	(16dd\LL	3	.
.	.	.	16b\JJ	.	.
.	8d 8B\	.	4gg\)	.	.
.	8dJ 8B\	.	.	.	.
=23	=23	=23	=23	=23	=23
4.D/	8D\L	.	(8.ff#\L	4	.
.	8c 8A 8F#\	.	.	.	.
.	.	.	16ee\L	3	.
.	8cJ 8A 8F#\	.	16cc\	2	.
.	.	.	16a\JJ	1	.
=24	=24	=24	=24	=24	=24
4.G/	8G\L	.	8b'/L	3	.
.	8d 8B\	.	8g'/J)	1	.
.	8dJ 8B\	.	8r	.	.
=25	=25	=25	=25	=25	=25
4.D/	8D\L	.	(16cc\LL	2	.
.	.	.	16a\JJ	.	.
.	8c 8A 8F#\	.	4ee\)	.	.
.	8cJ 8A 8F#\	.	.	.	.
*v	*v	*	*	*	*
=26	=26	=26	=26	=26
8B 8G|\	.	(16dd\LL	1	.
.	.	16bb|\JJ)	.	.
!	!	!	!	!LO:DY:b=2
4c#X 4B-X 4G 4E-X;\	.	4gg;\	3-4	sf
=27	=27	=27	=27	=27
*^	*	*	*	*
4.D/	8D\L	.	(8.ff#\L	3	.
.	8cn 8A 8F#\	.	.	.	.
.	.	.	16ee\L	2	.
.	8cJ 8A 8F#\	.	16cc\	1	.
.	.	.	16a\JJ)	2	.
*v	*v	*	*	*	*
=28	=28	=28	=28	=28
!LO:TX:t=P:problem:mixed beam	!	!LO:TX:t=P:problem:mixed beam	!	!
8BL 8G|\	.	8g'/L	.	.
8GG|/J	.	8ggJ 8dd 8b|\	.	.
8r	.	8r	.	.
==	==	==	==	==
*-	*-	*-	*-	*-
!!!system-decoration: {s1,s2}
!!!RDF**kern: > = above
!!!RDF**kern: < = below
!!!RDF**kern: | = vertical stroke
!!!ENC: Marta Lawrence
!!!ENC: 2021-05-02
!!!ENC: Marcin Jachim
!!!END: 2021-04-19
